app/img/carousel/instagram.svg

<svg width="40" height="40" viewBox="0 0 40 40" fill="none" xmlns="http://www.w3.org/2000/svg">
<g clip-path="url(#clip0_606_31)">
<path d="M20 40C8.956 40 0 31.044 0 20C0 8.956 8.956 0 20 0C31.044 0 40 8.956 40 20C40 31.044 31.044 40 20 40Z" fill="url(#paint0_linear_606_31)"/>
<path d="M20.0002 8.80766C23.6443 8.80766 24.0763 8.81966 25.5163 8.88766C26.8483 8.94766 27.5723 9.17166 28.0523 9.35966C28.6883 9.60766 29.1443 9.90366 29.6203 10.3797C30.0963 10.8557 30.3923 11.3117 30.6403 11.9477C30.8283 12.4277 31.0483 13.1517 31.1123 14.4837C31.1763 15.9237 31.1923 16.3557 31.1923 19.9997C31.1923 23.6437 31.1803 24.0757 31.1123 25.5157C31.0523 26.8477 30.8283 27.5717 30.6403 28.0517C30.3923 28.6877 30.0963 29.1437 29.6203 29.6197C29.1443 30.0957 28.6883 30.3917 28.0523 30.6397C27.5723 30.8277 26.8483 31.0477 25.5163 31.1117C24.0763 31.1757 23.6443 31.1917 20.0002 31.1917C16.3562 31.1917 15.9242 31.1797 14.4842 31.1117C13.1522 31.0517 12.4282 30.8277 11.9482 30.6397C11.3122 30.3917 10.8562 30.0957 10.3802 29.6197C9.90424 29.1437 9.60824 28.6877 9.36024 28.0517C9.17224 27.5717 8.95224 26.8477 8.88824 25.5157C8.82424 24.0757 8.80824 23.6437 8.80824 19.9997C8.80824 16.3557 8.82024 15.9237 8.88824 14.4837C8.94824 13.1517 9.17224 12.4277 9.36024 11.9477C9.60824 11.3117 9.90424 10.8557 10.3802 10.3797C10.8562 9.90366 11.3122 9.60766 11.9482 9.35966C12.4282 9.17166 13.1522 8.95166 14.4842 8.88766C15.9242 8.81966 16.3562 8.80766 20.0002 8.80766ZM20.0002 6.34766C16.2922 6.34766 15.8282 6.36366 14.3722 6.43166C12.9202 6.49966 11.9282 6.72766 11.0562 7.06766C10.1602 7.41166 9.39624 7.87966 8.64024 8.63966C7.88024 9.39966 7.41624 10.1597 7.06424 11.0597C6.72824 11.9277 6.49624 12.9197 6.42824 14.3757C6.36024 15.8317 6.34424 16.2957 6.34424 20.0037C6.34424 23.7117 6.36024 24.1757 6.42824 25.6317C6.49624 27.0837 6.72424 28.0757 7.06424 28.9477C7.41224 29.8397 7.88024 30.6037 8.64024 31.3597C9.40024 32.1197 10.1602 32.5837 11.0602 32.9357C11.9282 33.2717 12.9202 33.5037 14.3762 33.5717C15.8322 33.6397 16.2962 33.6557 20.0042 33.6557C23.7123 33.6557 24.1763 33.6397 25.6323 33.5717C27.0843 33.5037 28.0763 33.2757 28.9483 32.9357C29.8403 32.5877 30.6043 32.1197 31.3603 31.3597C32.1203 30.5997 32.5843 29.8397 32.9363 28.9397C33.2723 28.0717 33.5043 27.0797 33.5723 25.6237C33.6403 24.1677 33.6563 23.7037 33.6563 19.9957C33.6563 16.2877 33.6403 15.8237 33.5723 14.3677C33.5043 12.9157 33.2763 11.9237 32.9363 11.0517C32.5883 10.1597 32.1203 9.39566 31.3603 8.63966C30.6003 7.87966 29.8403 7.41566 28.9403 7.06366C28.0723 6.72766 27.0803 6.49566 25.6243 6.42766C24.1723 6.36366 23.7083 6.34766 20.0002 6.34766Z" fill="white"/>
<path d="M19.9993 12.9878C16.1273 12.9878 12.9873 16.1278 12.9873 19.9998C12.9873 23.8718 16.1273 27.0118 19.9993 27.0118C23.8713 27.0118 27.0113 23.8718 27.0113 19.9998C27.0113 16.1278 23.8713 12.9878 19.9993 12.9878ZM19.9993 24.5518C17.4873 24.5518 15.4473 22.5158 15.4473 19.9998C15.4473 17.4838 17.4873 15.4478 19.9993 15.4478C22.5113 15.4478 24.5513 17.4838 24.5513 19.9998C24.5513 22.5158 22.5113 24.5518 19.9993 24.5518Z" fill="white"/>
<path d="M27.2879 14.352C28.1937 14.352 28.9279 13.6178 28.9279 12.712C28.9279 11.8063 28.1937 11.072 27.2879 11.072C26.3822 11.072 25.6479 11.8063 25.6479 12.712C25.6479 13.6178 26.3822 14.352 27.2879 14.352Z" fill="white"/>
</g>
<defs>
<linearGradient id="paint0_linear_606_31" x1="5.85786" y1="34.1421" x2="34.1421" y2="5.85786" gradientUnits="userSpaceOnUse">
<stop stop-color="#FFD521"/>
<stop offset="0.0551048" stop-color="#FFD020"/>
<stop offset="0.1241" stop-color="#FEC01E"/>
<stop offset="0.2004" stop-color="#FCA71B"/>
<stop offset="0.2821" stop-color="#FA8316"/>
<stop offset="0.3681" stop-color="#F85510"/>
<stop offset="0.4563" stop-color="#F51E09"/>
<stop offset="0.5" stop-color="#F30005"/>
<stop offset="0.5035" stop-color="#F20007"/>
<stop offset="0.5966" stop-color="#E1003B"/>
<stop offset="0.6879" stop-color="#D30067"/>
<stop offset="0.7757" stop-color="#C70088"/>
<stop offset="0.8589" stop-color="#BF00A0"/>
<stop offset="0.9357" stop-color="#BB00AF"/>
<stop offset="1" stop-color="#B900B4"/>
</linearGradient>
<clipPath id="clip0_606_31">
<rect width="40" height="40" fill="white"/>
</clipPath>
</defs>
</svg>

<svg width="40" height="40" fill="none" xmlns="http://www.w3.org/2000/svg"><g clip-path="url(#clip0_606_31)"><path d="M20 40C8.956 40 0 31.044 0 20S8.956 0 20 0s20 8.956 20 20-8.956 20-20 20z" fill="url(#paint0_linear_606_31)"/><path d="M20 8.808c3.644 0 4.076.012 5.516.08 1.332.06 2.056.284 2.536.472a4.242 4.242 0 011.568 1.02c.476.476.772.932 1.02 1.568.188.48.408 1.204.472 2.536.064 1.44.08 1.872.08 5.516s-.012 4.076-.08 5.516c-.06 1.332-.284 2.056-.472 2.536a4.242 4.242 0 01-1.02 1.568 4.242 4.242 0 01-1.568 1.02c-.48.188-1.204.408-2.536.472-1.44.064-1.872.08-5.516.08s-4.076-.012-5.516-.08c-1.332-.06-2.056-.284-2.536-.472a4.242 4.242 0 01-1.568-1.02 4.242 4.242 0 01-1.02-1.568c-.188-.48-.408-1.204-.472-2.536-.064-1.44-.08-1.872-.08-5.516s.012-4.076.08-5.516c.06-1.332.284-2.056.472-2.536a4.242 4.242 0 011.02-1.568 4.242 4.242 0 011.568-1.02c.48-.188 1.204-.408 2.536-.472 1.44-.068 1.872-.08 5.516-.08zm0-2.46c-3.708 0-4.172.016-5.628.084-1.452.068-2.444.296-3.316.636A6.59 6.59 0 008.64 8.64a6.72 6.72 0 00-1.576 2.42c-.336.868-.568 1.86-.636 3.316-.068 1.456-.084 1.92-.084 5.628s.016 4.172.084 5.628c.068 1.452.296 2.444.636 3.316A6.673 6.673 0 008.64 31.36a6.72 6.72 0 002.42 1.576c.868.336 1.86.568 3.316.636 1.456.068 1.92.084 5.628.084s4.172-.016 5.628-.084c1.452-.068 2.444-.296 3.316-.636a6.673 6.673 0 002.412-1.576 6.72 6.72 0 001.576-2.42c.336-.868.568-1.86.636-3.316.068-1.456.084-1.92.084-5.628s-.016-4.172-.084-5.628c-.068-1.452-.296-2.444-.636-3.316A6.673 6.673 0 0031.36 8.64a6.72 6.72 0 00-2.42-1.576c-.868-.336-1.86-.568-3.316-.636-1.452-.064-1.916-.08-5.624-.08z" fill="#fff"/><path d="M20 12.988a7.013 7.013 0 100 14.025 7.013 7.013 0 000-14.025zm0 11.564a4.552 4.552 0 110-9.104 4.552 4.552 0 010 9.104zm7.288-10.2a1.64 1.64 0 100-3.28 1.64 1.64 0 000 3.28z" fill="#fff"/></g><defs><linearGradient id="paint0_linear_606_31" x1="5.858" y1="34.142" x2="34.142" y2="5.858" gradientUnits="userSpaceOnUse"><stop stop-color="#FFD521"/><stop offset=".055" stop-color="#FFD020"/><stop offset=".124" stop-color="#FEC01E"/><stop offset=".2" stop-color="#FCA71B"/><stop offset=".282" stop-color="#FA8316"/><stop offset=".368" stop-color="#F85510"/><stop offset=".456" stop-color="#F51E09"/><stop offset=".5" stop-color="#F30005"/><stop offset=".503" stop-color="#F20007"/><stop offset=".597" stop-color="#E1003B"/><stop offset=".688" stop-color="#D30067"/><stop offset=".776" stop-color="#C70088"/><stop offset=".859" stop-color="#BF00A0"/><stop offset=".936" stop-color="#BB00AF"/><stop offset="1" stop-color="#B900B4"/></linearGradient><clipPath id="clip0_606_31"><path fill="#fff" d="M0 0h40v40H0z"/></clipPath></defs></svg>
